!!!OTL: HABE ICHS NICHT LANG GESAT
!!!ARE: Europa, Mitteleuropa, Deutschland, Sachsen
!!!SCT: Z0309
!!!YEM: Copyright 1995, estate of Helmut Schaffrath.
**kern
*ICvox
*Ivox
*M3/8
*k[f#]
*G:
=1
{16g
16b
8dd
8dd
=2
16gg
16ee
8dd
8r}
=3
{16cc
16cc
8a
8cc
=4
8b
8f#
8g}
=5
{16g
16b
8dd
8dd
=6
16gg
16ee
8dd
8r}
=7
{16cc
16cc
8a
8cc
=8
8b
8f#
8g}
=9
{16cc
16a
8f#
8d
=10
16g
16b
8dd
8r}
=11
{16cc
16a
8f#
8d
=12
16g
16b
8dd
8r}
=13
{16g
16dd
8dd
8r
=14
16g
16ee
8ee
8r}
=15
{16dd
16b
16cc
16a
16b
16g
=16
16a
16f#
8g
8g}
==
!!!AGN: Lyrisches Lied, Romanze, Verlassenheit
!!!ONB: ESAC (Essen Associative Code) Database: ZUCCAL
!!!AMT: simple triple
!!!AIN: vox
!!!EED: Helmut Schaffrath
!!!EEV: 1.0
*-
